X:8339
T:Rickaty Robin
R:hornpipe
S:Julia Say <Julia.Say:nspipes.co.uk> tradtunes 2012-1-15
N:from unnamed Fiddle MS dated 1846, mid-Northumberland
B:"Benjamin Rose His Book", 1820-1822
M:C|
E:10
L:1/8
K:D
FE |\
DFAd fefd | cdef gfge | fagf edcd | edcB AGFE |
DFAd fefd | cdef gfge | fagf edcd | d2 d2 d2 :|
|:\
ag |\
fgag fgag | b^aba b=agf | efgf efgf | a^gag a=gec |
DFAd fefd | cdef gfge | fagf edce | d2 d2 d2 :|
